X:154
T:The Brown Maid
N:"With expression" "collected by J. O'Neill"
B:O'Neill's 154
Z:Transcribed by henrik.norbeck@mailbox.swipnet.se
M:C
L:1/8
K:F
fe|dcAc BAGF|GAFF F2 z F|BAGF ABcc|d/e/f ed c2 z c|
BAGF F2 z GA|cfef ed2 fe|dcAc BAGF|DFFG F2||
FG|ABcd cAGF|Acde f2 z c|fedc AdcA|DEFA G2 FG|
ABcd cAGF|Acde f2 fe|dcAc BAGF|DFFG F2||
